icons/rustfmt.svg

<svg width="16" height="16" viewBox="0 0 16 16" fill="none" xmlns="http://www.w3.org/2000/svg">
<path fill-rule="evenodd" clip-rule="evenodd" d="M4 6.20984H4.75115V9.77049H4.00127C4.00127 10.2768 4.00127 10.7541 4.00127 11H7.73068V9.77049H6.78083V8.6H8.00064C8.00064 8.6 9.00048 8.6 9.00048 9.8C9.00048 10.2623 9.00048 10.2768 9.00048 10.2768C9.00048 10.2623 8.99258 10.5703 9.10733 10.686C9.22208 10.8018 9.36217 10.8902 9.51692 10.9446C9.67167 10.999 10.0003 11 10.0003 11H12C12 10.2623 12 10.2623 12 9.76902C11.5001 9.76902 10.8802 9.55321 10.8802 8.98361C10.8735 8.84502 10.8371 8.70941 10.7733 8.58565C10.7095 8.4619 10.6199 8.35282 10.5102 8.26557C10.8109 8.05238 11.0391 7.7548 11.165 7.41183C11.2908 7.06886 11.3084 6.69649 11.2155 6.34351C11.1226 5.99053 10.9234 5.67339 10.6441 5.43366C10.3648 5.19393 10.0185 5.04277 9.65037 5H4C4 5.34427 4 5.83607 4 6.20984ZM6.78083 7.4H8.41057C8.49654 7.41089 8.58387 7.40364 8.66676 7.37872C8.74965 7.3538 8.82619 7.31178 8.89127 7.25547C8.95636 7.19916 9.0085 7.12985 9.04421 7.05216C9.07993 6.97447 9.0984 6.89019 9.0984 6.80492C9.0984 6.71965 9.07993 6.63536 9.04421 6.55767C9.0085 6.47998 8.95636 6.41067 8.89127 6.35436C8.82619 6.29805 8.74965 6.25604 8.66676 6.23112C8.58387 6.2062 8.49654 6.19894 8.41057 6.20984H6.78083V7.4Z" fill="#D87A35"/>
<rect x="3" y="2" width="10" height="1" fill="#D87A35"/>
<rect x="3" y="13" width="10" height="1" fill="#D87A35"/>
</svg>

<svg xmlns="http://www.w3.org/2000/svg" width="16" height="16" fill="none"><path fill="#D87A35" fill-rule="evenodd" d="M4 6.21h.751v3.56h-.75V11h3.73V9.77h-.95V8.6H8s1 0 1 1.2v.477c0-.015-.008.293.106.409.115.116.255.204.41.259.155.054.483.055.483.055h2V9.769c-.5 0-1.12-.216-1.12-.785a.97.97 0 0 0-.37-.718c.3-.214.53-.511.655-.854.126-.343.143-.716.05-1.068a1.805 1.805 0 0 0-.57-.91c-.28-.24-.627-.391-.995-.434H4v1.21ZM6.78 7.4h1.63a.62.62 0 0 0 .481-.145.6.6 0 0 0 .207-.45.592.592 0 0 0-.207-.45.613.613 0 0 0-.48-.145H6.78V7.4Z" clip-rule="evenodd"/><path fill="#D87A35" d="M3 2h10v1H3zM3 13h10v1H3z"/></svg>
